X: 152
%
U:~=!turn!
T: The Duchess of Buccleugh
C:Neil Gow
O:Scotland
B:Keith Norman MacDonald : "The Skye collection of the best reels & strathspeys extant" : 1887
Z:Ralph Palmer
R:Strathspey
M:C
L:1/8
K:A
"Slowly."e/2c/2 | cAAc TaAAT=c | B=G G/2A/2B/2=c/2 Td2 de/2d/2 | cAATc aAATc | e>c (A/2B/2).c/2.d/2 e2 e :|
(f/2g/2) | a>fg>e f>de>c | d/2=c/2B/2A/2 =G/2A/2B/2c/2 d2 df/2^g/2 | a>fg>e f>de>c | e/2d/2c/2B/2 A/2B/2c/2d/2 e2 ef/2g/2 |
a/2g/2f/2a/2 g/2f/2e/2g/2 f/2e/2d/2f/2 e/2d/2c/2e/2 | d/2c/2B/2A/2 =G/2A/2B/2c/2 ~d2 de/2d/2 | cAATc aAATc | e>c (A/2B/2).c/2.d/2 e2 e |]


